_includes/icons/color-hospital.svg

<svg fill="#666" height="50" viewBox="0 0 48 48" width="50" xmlns="http://www.w3.org/2000/svg"><path d="m10 42h28c2.199219 0 4-1.800781 4-4v-22.300781c0-1.597656-1-3.097656-2.601562-3.699219l-15.398438-6-15.398437 6c-1.601563.601563-2.601563 2.101563-2.601563 3.699219v22.300781c0 2.199219 1.800781 4 4 4z" fill="#f44336"/><path d="m32 24h-6v-6h-4v6h-6v4h6v6h4v-6h6z" fill="#fff"/></svg>

<svg xmlns="http://www.w3.org/2000/svg" viewBox="0 0 48 48" width="50" height="50" fill="#666"><path d="M 10 42 L 38 42 C 40.199219 42 42 40.199219 42 38 L 42 15.699219 C 42 14.101563 41 12.601563 39.398438 12 L 24 6 L 8.601563 12 C 7 12.601563 6 14.101563 6 15.699219 L 6 38 C 6 40.199219 7.800781 42 10 42 Z" fill="#f44336"/><path d="M 32 24 L 26 24 L 26 18 L 22 18 L 22 24 L 16 24 L 16 28 L 22 28 L 22 34 L 26 34 L 26 28 L 32 28 Z" fill="#fff"/></svg>
